X:1
T:Title
%%score { ( 1 3 4 ) | ( 2 5 ) }
L:1/8
Q:1/4=100
M:4/4
K:C
V:1 treble nm="Grand Piano"
V:3 treble 
V:4 treble 
V:2 bass 
V:5 bass 
V:1
 .[Ec]2 .[EB]2 .[EA]2 .[EG]2 | z4 [EG]4 | [Ge]2 [D^Gd]2 [EAc]2 [EA^c]2 | %3
w: S.~B.~Stambaugh * * *|||
 [DAd]>[DA] [D^FB]>[CFc] [=Fd]4 | [Ec]2 [EB]2 [EA]2 [EG]2 | [CE]>[DF] [EG]>[FA] [EG]>E [EG]>[Gc] | %6
w: |||
 [FA]2 [GA]2 [Ff]>[FA] [Ae]>[Ad] | [Gc]2 [DFB]2 [Ec]4 | c6 z2 | c6 z2 | c2 [G^c]2 [^Fd]2 [FA]2 | %11
w: |||||
 _B6[K:bass] z2 | [CG_B]2 [GB]2 [GB]2 z2 | [CFA]2 [FA]2 [FA]2 z2 | [CEG]4 [B,FG]4 | %15
w: ||||
 [CEG]2 A2 _B>G A>B | c6 z2 | c6 z2 | c2 c2 d2 _e2 | d6 z2 | d3- d/d/ e3- e/e/ | z4 f2 z2 | %22
w: |||||||
 c2 A2 [G_B]2 [EG]2 |[M:9/8] F2 G- G [CD^FA]2 [D=FB]3 |[M:4/4] .[Ec]2 .[EB]2 .[EA]2 .[EG]2 | %25
w: |||
 z4 [EG]4 | [Ge]2 [D^Gd]2 [EAc]2 [EA^c]2 | [DAd]>[DA] [D^FB]>[CFc] [=Fd]4 | %28
w: |||
 [Ec]2 [EB]2 [EA]2 [EG]2 | [CE]>[DF] [EG]>[FA] [EG]>E [EG]>[Gc] | [FA]2 [GA]2 [Ff]>[FA] [Ae]>[Ad] | %31
w: |||
[M:8/4] [Gc]2 [DFB]2 [Ec]4 z8 |] %32
w: |
V:2
 .[C,G,]2 .[G,,G,]2 .[C,G,]2 .[G,,G,]2 | [C,G,]2 [C,G,]2 [C,C]>C, E,>G, | C2 B,2 A,2 G,2 | %3
 ^F,>F, D,>D, [G,B,]4 | [C,G,]2 [G,,G,]2 [C,G,]2 [G,,G,]2 | %5
 [C,G,]>[C,G,] [C,G,]>[C,G,] [C,C]>[C,C] [C,C]>[E,C] | [F,C]2 [E,^C]2 [D,C]>[D,C] [E,C]>[F,D] | %7
 [G,E]2 [G,,G,]2 [C,G,C]4 | [F,A,F]2 [C,A,]2 [F,A,]2 [C,A,]2 | [F,A,F]2 [C,A,]2 [F,A,]2 [C,A,]2 | %10
 [F,A,F]2 [E,A,]2 [D,A,]2 [D,D]2 | [G,DG]2 [D,D]2 [G,D]2 z2 | z2 C2 C2 A,>G, | z2 C2 C2 E,>D, | %14
 G,2 E,2 D,2 G,2 | z2[K:treble] [CF]2 [CG]2 z2 | [F,A,F]2 [C,A,]2 [F,A,]2 [C,A,]2 | %17
 [F,A,F]2 [C,A,]2 [F,A,]2 [C,A,]2 | [F,A,F]2 [F,A,F]2 [F,_B,F]2 [F,CF]2 | %19
 [_B,F]2 [A,C]2 [G,B,]2 z z/ [G,=B,G]/ | [G,_B,G]3- [G,B,G]/[G,B,G]/ [CG]3- [CG]/[CG]/ | %21
 [A,CF]2 [A,^CF]2 .[_B,DF]2 [=B,F^G]>[B,FG] | [CFA]2 [CF]2[K:bass] [C,C]2 [C,_B,]2 | %23
[M:9/8] [F,A,C]2 G,- G, D,2 [G,,G,]3 |[M:4/4] .[C,G,]2 .[G,,G,]2 .[C,G,]2 .[G,,G,]2 | %25
 [C,G,]2 [C,G,]2 [C,C]>C, E,>G, | C2 B,2 A,2 G,2 | ^F,>F, D,>D, [G,B,]4 | %28
 [C,G,]2 [G,,G,]2 [C,G,]2 [G,,G,]2 | [C,G,]>[C,G,] [C,G,]>[C,G,] [C,C]>[C,C] [C,C]>[E,C] | %30
 [F,C]2 [E,^C]2 [D,C]>[D,C] [E,C]>[F,D] |[M:8/4] [G,E]2 [G,,G,]2 [C,G,C]4 z8 |] %32
V:3
 x8 | [CE]>[DF] [EG]>[FA] z z/ C/ C2 | x8 | x8 | x8 | x8 | x8 | x8 | z2 F2 z z/ B/ c>d | %9
 z2 F2 z z/ B/ c>d | x8 | z2 G2 G2[K:bass] G,>F, | x8 | x8 | x8 | x8 | z2 F2 z z/ B/ c>d | %17
 z2 F2 z z/ B/ c>d | x8 | z2 ^F2 G2 z z/ d/ | x8 | f2 f2 z G e>d | x8 |[M:9/8] x9 |[M:4/4] x8 | %25
 [CE]>[DF] [EG]>[FA] z z/ C/ C2 | x8 | x8 | x8 | x8 | x8 |[M:8/4] x16 |] %32
V:4
 x8 | x8 | x8 | x8 | x8 | x8 | x8 | x8 | z4 F2 F2 | z4 F2 F2 | x8 | x6[K:bass] x2 | x8 | x8 | x8 | %15
 x8 | z4 F2 F2 | z4 F2 F2 | x8 | x8 | x8 | x8 | x8 |[M:9/8] x9 |[M:4/4] x8 | x8 | x8 | x8 | x8 | %29
 x8 | x8 |[M:8/4] x16 |] %32
V:5
 x8 | x8 | x8 | x8 | x8 | x8 | x8 | x8 | x8 | x8 | x8 | x8 | E,6 z2 | F,6 z2 | x8 | %15
 C,6[K:treble] z2 | x8 | x8 | x8 | x8 | x8 | x8 | x4[K:bass] x4 |[M:9/8] x9 |[M:4/4] x8 | x8 | x8 | %27
 x8 | x8 | x8 | x8 |[M:8/4] x16 |] %32

